Numix/32/status/weather-storm.svg

<?xml version="1.0" encoding="UTF-8" standalone="yes"?>
<svg xmlns="http://www.w3.org/2000/svg" xmlns:xlink="http://www.w3.org/1999/xlink" width="32px" height="32px" viewBox="0 0 24 24" version="1.1">
  <g id="surface1">
    <path style=" stroke:none;fill-rule:nonzero;fill:rgb(92.156863%,92.156863%,92.156863%);fill-opacity:1;" d="M 5.101562 20.9375 C 4.128906 20.65625 5.121094 18.773438 5.71875 18.15625 C 6.007812 18.96875 6.070312 21.214844 5.101562 20.9375 Z M 5.101562 20.9375 "/>
    <path style=" stroke:none;fill-rule:nonzero;fill:rgb(92.156863%,92.156863%,92.156863%);fill-opacity:1;" d="M 6.921875 18.167969 C 5.953125 17.890625 6.945312 16.003906 7.542969 15.386719 C 7.828125 16.203125 7.894531 18.445312 6.921875 18.167969 Z M 6.921875 18.167969 "/>
    <path style=" stroke:none;fill-rule:nonzero;fill:rgb(92.156863%,92.156863%,92.156863%);fill-opacity:1;" d="M 4.3125 16.832031 C 3.339844 16.554688 4.335938 14.667969 4.929688 14.050781 C 5.21875 14.867188 5.28125 17.109375 4.3125 16.832031 Z M 4.3125 16.832031 "/>
    <path style=" stroke:none;fill-rule:nonzero;fill:rgb(92.156863%,92.156863%,92.156863%);fill-opacity:1;" d="M 13.609375 21.765625 C 12.640625 21.488281 13.632812 19.601562 14.230469 18.984375 C 14.515625 19.800781 14.582031 22.046875 13.609375 21.765625 Z M 13.609375 21.765625 "/>
    <path style=" stroke:none;fill-rule:nonzero;fill:rgb(87.058824%,86.27451%,24.705882%);fill-opacity:1;" d="M 8.953125 15.148438 C 10.664062 15.234375 11.449219 14.964844 12.65625 14.335938 L 10.617188 17.179688 L 13 17.496094 L 9.253906 21.875 L 10.742188 18.351562 L 8.828125 18.757812 Z M 8.953125 15.148438 "/>
    <path style=" stroke:none;fill-rule:nonzero;fill:rgb(87.058824%,86.27451%,24.705882%);fill-opacity:1;" d="M 15.703125 14.460938 C 17.414062 14.546875 18.199219 14.28125 19.40625 13.648438 L 17.367188 16.492188 L 19.75 16.808594 L 16.003906 21.1875 L 17.492188 17.667969 L 15.578125 18.074219 Z M 15.703125 14.460938 "/>
    <path style=" stroke:none;fill-rule:nonzero;fill:rgb(92.156863%,92.156863%,92.156863%);fill-opacity:1;" d="M 13.707031 16.953125 C 12.734375 16.671875 13.730469 14.789062 14.328125 14.171875 C 14.613281 14.984375 14.679688 17.230469 13.707031 16.953125 Z M 13.707031 16.953125 "/>
    <path style=" stroke:none;fill-rule:nonzero;fill:rgb(92.156863%,92.156863%,92.156863%);fill-opacity:1;" d="M 8.738281 5 C 8.5625 5 8.375 5.007812 8.1875 5.03125 C 5.15625 5.421875 5.25 8.019531 5.25 8.019531 C 4.007812 8.230469 3 9.3125 3 10.445312 C 3 11.578125 4.292969 12.582031 5.378906 12.871094 C 6.023438 13.046875 6.871094 12.871094 6.871094 12.871094 C 7.253906 13.546875 8.519531 14 9.398438 14 C 10.835938 14 12.316406 13.523438 12.65625 12.871094 C 12.65625 12.871094 18.609375 13.347656 19.847656 12.871094 C 21.644531 12.179688 21.085938 10.011719 19.886719 9.277344 C 18.691406 8.546875 17.125 9.058594 17.125 9.058594 C 17.125 9.058594 17.117188 7.566406 15.425781 6.851562 C 13.734375 6.140625 12.304688 7.71875 12.304688 7.71875 C 12.304688 7.71875 11.355469 5.015625 8.738281 5 Z M 8.738281 5 "/>
  </g>
</svg>

<svg xmlns="http://www.w3.org/2000/svg" width="32" height="32" viewBox="0 0 24 24">
 <g>
  <path d="m 5.102 20.938 c -0.973 -0.281 0.02 -2.164 0.617 -2.781 c 0.289 0.813 0.352 3.059 -0.617 2.781 m 0 0" style="fill:#ebebeb;fill-opacity:1;stroke:none;fill-rule:nonzero"/>
  <path d="m 6.922 18.17 c -0.969 -0.277 0.023 -2.164 0.621 -2.781 c 0.285 0.816 0.352 3.059 -0.621 2.781 m 0 0" style="fill:#ebebeb;fill-opacity:1;stroke:none;fill-rule:nonzero"/>
  <path d="m 4.313 16.832 c -0.973 -0.277 0.023 -2.164 0.617 -2.781 c 0.289 0.816 0.352 3.059 -0.617 2.781 m 0 0" style="fill:#ebebeb;fill-opacity:1;stroke:none;fill-rule:nonzero"/>
  <path d="m 13.609 21.766 c -0.969 -0.277 0.023 -2.164 0.621 -2.781 c 0.285 0.816 0.352 3.063 -0.621 2.781 m 0 0" style="fill:#ebebeb;fill-opacity:1;stroke:none;fill-rule:nonzero"/>
  <path d="m 8.953 15.15 c 1.711 0.086 2.496 -0.184 3.703 -0.813 l -2.039 2.844 l 2.383 0.316 l -3.746 4.379 l 1.488 -3.523 l -1.914 0.406 m 0.125 -3.609" style="fill:#dedc3e;fill-opacity:1;stroke:none;fill-rule:nonzero"/>
  <path d="m 15.703 14.461 c 1.711 0.086 2.496 -0.18 3.703 -0.813 l -2.039 2.844 l 2.383 0.316 l -3.746 4.379 l 1.488 -3.52 l -1.914 0.406 m 0.125 -3.613" style="fill:#dedc3e;fill-opacity:1;stroke:none;fill-rule:nonzero"/>
  <path d="m 13.707 16.953 c -0.973 -0.281 0.023 -2.164 0.621 -2.781 c 0.285 0.813 0.352 3.059 -0.621 2.781 m 0 0" style="fill:#ebebeb;fill-opacity:1;stroke:none;fill-rule:nonzero"/>
  <path d="m 8.738 5 c -0.176 0 -0.363 0.008 -0.551 0.031 c -3.03 0.391 -2.938 2.988 -2.938 2.988 c -1.242 0.211 -2.25 1.293 -2.25 2.426 c 0 1.133 1.293 2.137 2.379 2.426 c 0.645 0.176 1.492 0 1.492 0 c 0.383 0.676 1.648 1.129 2.527 1.129 c 1.438 0 2.918 -0.477 3.258 -1.129 c 0 0 5.953 0.477 7.191 0 c 1.797 -0.691 1.238 -2.859 0.039 -3.594 c -1.195 -0.73 -2.762 -0.219 -2.762 -0.219 c 0 0 -0.008 -1.492 -1.699 -2.207 c -1.691 -0.711 -3.121 0.867 -3.121 0.867 c 0 0 -0.949 -2.703 -3.566 -2.719 m 0 0" style="fill:#ebebeb;fill-opacity:1;stroke:none;fill-rule:nonzero"/>
 </g>
</svg>
